icons/mark-github-24.svg

<svg xmlns="http://www.w3.org/2000/svg" width="24" height="24" viewBox="0 0 24 24" ><path d="M12 1C5.9225 1 1 5.9225 1 12C1 16.8675 4.14875 20.9787 8.52125 22.4362C9.07125 22.5325 9.2775 22.2025 9.2775 21.9137C9.2775 21.6525 9.26375 20.7862 9.26375 19.865C6.5 20.3737 5.785 19.1912 5.565 18.5725C5.44125 18.2562 4.905 17.28 4.4375 17.0187C4.0525 16.8125 3.5025 16.3037 4.42375 16.29C5.29 16.2762 5.90875 17.0875 6.115 17.4175C7.105 19.0812 8.68625 18.6137 9.31875 18.325C9.415 17.61 9.70375 17.1287 10.02 16.8537C7.5725 16.5787 5.015 15.63 5.015 11.4225C5.015 10.2262 5.44125 9.23625 6.1425 8.46625C6.0325 8.19125 5.6475 7.06375 6.2525 5.55125C6.2525 5.55125 7.17375 5.2625 9.2775 6.67875C10.1575 6.43125 11.0925 6.3075 12.0275 6.3075C12.9625 6.3075 13.8975 6.43125 14.7775 6.67875C16.8813 5.24875 17.8025 5.55125 17.8025 5.55125C18.4075 7.06375 18.0225 8.19125 17.9125 8.46625C18.6138 9.23625 19.04 10.2125 19.04 11.4225C19.04 15.6437 16.4688 16.5787 14.0213 16.8537C14.42 17.1975 14.7638 17.8575 14.7638 18.8887C14.7638 20.36 14.75 21.5425 14.75 21.9137C14.75 22.2025 14.9563 22.5462 15.5063 22.4362C19.8513 20.9787 23 16.8537 23 12C23 5.9225 18.0775 1 12 1Z"/></svg>

<svg xmlns="http://www.w3.org/2000/svg" width="24" height="24" viewBox="0 0 24 24"><path d="M12 1C5.923 1 1 5.923 1 12c0 4.867 3.149 8.979 7.521 10.436.55.096.756-.233.756-.522 0-.262-.013-1.128-.013-2.049-2.764.509-3.479-.674-3.699-1.292-.124-.317-.66-1.293-1.127-1.554-.385-.207-.936-.715-.014-.729.866-.014 1.485.797 1.691 1.128.99 1.663 2.571 1.196 3.204.907.096-.715.385-1.196.701-1.471-2.448-.275-5.005-1.224-5.005-5.432 0-1.196.426-2.186 1.128-2.956-.111-.275-.496-1.402.11-2.915 0 0 .921-.288 3.024 1.128a10.193 10.193 0 0 1 2.75-.371c.936 0 1.871.123 2.75.371 2.104-1.43 3.025-1.128 3.025-1.128.605 1.513.221 2.64.111 2.915.701.77 1.127 1.747 1.127 2.956 0 4.222-2.571 5.157-5.019 5.432.399.344.743 1.004.743 2.035 0 1.471-.014 2.654-.014 3.025 0 .289.206.632.756.522C19.851 20.979 23 16.854 23 12c0-6.077-4.922-11-11-11Z"/></svg>
